X:1
T:Wiliam Byrd
T:Mass for four voices
T:Credo
%%score 1 2 3 4
L:1/8
M:4/4
K:C
V:1 treble nm="Sopraan" snm="Sop."
V:2 treble nm="Alt" snm="A."
V:3 treble-8 nm="Tenor" snm="T."
V:4 bass nm="Bas" snm="Bs."
V:1
 z8 | z8 |[K:Bb][M:2/2] z8 | d8 | d4 c4 | d4 B4 | A6 B2 | c8 | z4 G4 | B6 c2 | d2 e2 f4 | f4 e4 | %12
w: |||Pa|trem~ om|ni po|ten *|tem,~|fa|cto rem~|coe * *|li~ et~|
 d6 e2 | d4 c2 B2 | c2 d2 c4- | c2 B2 B4- | B4 A4 | B8 | z4 B4- | B4 B4 | e6 e2 | d4 d4- | %22
w: ter *|||||rae,~|vi|* si|bi li|um~ om|
 d2 c2 B4 | A4 A4- | A4 G4 | B4 A2 A2- | A2 GF G4 | A8 | z8 | z4 G4- | G4 F4 | B8- | B4 c4 | %33
w: * ni *|um~ et~|* in|vi si bi|* li * *|um.~||Et~|* in~|u|* num~|
 d6 d2 | B4 e4- | e2 d2 d4- | d4 c4 | B4 f4- | f2 f2 e4 | d8- | d4 c4 | e4 d4- | d4 c4- | c4 B4 | %44
w: Do mi|num~ Je|* Chri stum,~||* fi|* li um~|De|* i~|u ni|* ge|* ni|
 G8 | B4 A4- | A4 G4- | G4 ^F4 | G8- | G8 | z8 | z8 | z8 | z8 | z8 | z8 | z8 | z4 c4- | c4 A4 | %59
w: tum,~|u ni|* ge|* n|tum:~|||||||||De|* um~|
 B4 d4- | d4 c4 | d8 | z8 | z8 | d8 | c4 e4- | e4 d4 | z4 c4 | G4 B4 | c2 d2 e4- | e4 d4 | %71
w: de~ De||o,~|||De|um~ ve|* rum~|de~|De o~|ve * *|* ro~|
 c2 B2 B2 AG | A8 | z8 | z8 | d6 c2 | d4 e4 | f8 | B4 B4- | B2 A2 B2 c2 | d4 A4 | B8 | A4 d4- | %83
w: ve * * * *|ro,~|||ge ni|tum~ non~|fa|ctum,~ con|* sub stan ti|a lem~|pa|tri,~ con|
 d2 c2 d2 e2 | f4 B4 | e8 | d8- | d8 | z8 | z8 | B4 c4 | d6 d2 | G4 d4- | d4 c4 | d8 | z8 | z8 | %97
w: * sub stan ti|a lem~|pa|tri,~||||per~ quem~|om ni|a~ fa|* cta~|sunt,~|||
 z8 | d4 e4 | f6 e2 | d4 B2 c2 | d4 c4- | c2 B2 A4- | A2 B2 G4 | A8- | A8 | d8 | d4 c4 | d4 e4- | %109
w: |per~ quem~|om ni|a~ fa *|||* cta~ *|sunt.~||Qui~|pro pter~|nos~ ho|
 e2 d2 B4 | z4 d4 | c4 A4 | B8 | A4 F4 | G8 | ^F8 | z4 G4 | E8 | D8 | B4 d4- | d2 c2 A2 B2 | %121
w: * mi nes~|et~|pro pter~|no|stram~ sa|lu|tem~|de|scen|dit~|de coe||
 c6 BA | G2 A2 B4- | B2 A2 A2 GF | G8 | A8 | z8 | z4 G4 | B8 | A4 B4- | B2 c2 B4 | z8 | z8 | %133
w: ||||lis:~||Et~|in|car na|* tus~ est~|||
 z4 G4 | B6 c2 | d4 e4- | e2 d2 c4 | B8- | B8 | z4 c4- | c4 B4 | c4 e4 | d6 c2 | B4 c4 | B8 | z8 | %146
w: de~|spi ri|tu~ san||cto~||ex~|* Ma|ri a~|vir *|* gi|ne,~||
 z4 G4 | B4 A4 | c6 B2 | A2 G2 A4- | A4 G4 | B6 A2 | G2 F2 G4 | ^F8 | z4 A4- | A4 A4 | d4 c4 | %157
w: et~|ho mo~|fa *||||* * ctus~|est.~|Cru|* ci|fi xus~|
 d6 c2 | A4 d4 | _d8 | d4 B4 | A6 G2 | ^F2 G2 A2 B2 | c4 G4 | z4 A4- | A4 G4 | F4 F4 | B8- | B8 | %169
w: e ti|am~ pro~|no|bis~ sub~|Pon ti|o~ Pi la *|* to~|pas|* sus~|et~ se|pul||
 G8 | G8 | z8 | z8 | z8 | z8 | z4 G4 | c4 d4 | e4 f4 | d6 d2 | c4 B4 | A8 | z4 G4 | c4 A2 c2 | %183
w: tus~|est.~|||||Et~|re sur|re xit~|ter ti|a~ di|e~|se|cun dum~ scrip|
 B4 G4 | A4 B2 A2 | G2 F2 G4- | G4 ^F4 | G8 | G6 A2 | B4 c2 d2 | e4 f4 | g8 | z4 f4 | c4 d4 | %194
w: tu ras,~|scrip tu *|||ras.~|Et~ a|scen dit~ in~|coe *|lum,~|se|det~ ad~|
 e6 e2 | e4 d4- | d2 c2 B2 c2 | d4 z2 d2 | G4 A4 | B6 A2 | B4 c2 e2 | d3 c B2 cd | e2 d2 c4 | %203
w: dex te|ram~ pa||tris,~ se|det~ ad~|dex te|ram~ pa *||* * tris,~|
 z2 B2 d3 d | c2 B4 A2 | B8- | B8 | z8 | z4 F4 | f6 f2 | e4 f4 | d4 f4 | c8 | z8 | z8 | z4 B4 | %216
w: ad~ dex te|ram~ pa *|tris,~|||et~|i te|rum~ ven|tu rus~|est~|||cum~|
 f6 f2 | e4 d4- | d2 c2 d4 | B8 | A8 | z4 G4 | d4 d4 | e6 e2 | c8 | z8 | z4 B4- | B2 c2 d4- | %228
w: glo ri|a~ ju|* di *|ca|re~|vi|vos~ et~|mor tu|os,~||cu|* jus~ re|
 d4 G4- | G4 B4 | e8 | d8 | d6 c2 | B4 A4 | z4 d4- | d2 e2 f4- | f4 c4 | z4 e4 | d4 B4 | d8- | %240
w: * gni~|* non~|e|rit~|fi *|* nis,~|cu|* jus~ re|* gni~|non~|e rit~|fi|
 d4 B4 | z8 | z4 B4- | B4 B4 | c6 c2 | d8 | e8 | d8 | c6 c2 | c4 f4 | B4 c2 e2 | d4 c4 | z4 c4 | %253
w: * nis.~||Et~|* in~|Spi ri|tum~|san|ctum~|Do mi|num~ et~|vi vi fi|can tem,~|et~|
 F4 G2 B2 | A4 F4 | z8 | z8 | z8 | z4 d4- | d2 c2 d2 e2 | f4 F4 | z8 | z4 e4 | d4 c4- | c2 B2 B4 | %265
w: vi vi fi|can tem,~||||qui~|* ex~ pa *|* tre~||fi|li o~|* que~ pro|
 A3 B c2 A2 | B8 | z8 | z4 B4- | B4 d4 | e8 | c4 c4 | d8- | d4 c4 | c8 | z4 B4- | B2 c2 d4- | %277
w: ce * * *|dit,~||qui~|* cum~|pa|tre~ et~|fi|* li|o~|si|* mul~ a|
 d4 e4 | f4 B4 | e8 | d8 | z4 d4 | c4 A4 | B6 c2 | d8 | G8 | z4 d4- | d4 d4 | e4 d4 | d8 | z4 f4- | %291
w: * do|ra *||tur~|et~|con glo|ri fi|ca|tur,~|qui~|* lo|cu tus~|est~|per~|
 f4 B4 | d6 e2 | d4 c2 c2- | c2 B2 B4- | B4 A2 G2 | A2 B4 A2 | B8- | B8 | B8 | d4 B4 | z4 d4- | %302
w: * Pro|phe *|* tas,~ per~|* Pro phe|||tas.~||Et~|u nam~|san|
 d2 e2 f4 | d8 | z4 d4 | e6 d2 | c4 c4 | B6 B2 | A4 A4 | B4 c4 | d6 d2 | c8 | e4 d4- | d4 c4 | d8 | %315
w: |ctam~|Ca|tho li|cam,~ Ca|tho li|cam~ et~|A po|sto li|cam~|Ec cle|* si|am.~|
 z4 =B4 | c6 c2 | A4 c4- | c4 A4 | B8 | G8- | G8 | G8 | z4 c4- | c4 G4 | B6 c2 | d8 | B4 c4- | %328
w: Co|fi te|or~ u|* num~|bap|tis||ma~|in~|* re|mis si|o|nem~ pec|
 c2 B2 d4- | d2 c2 B4 | A8 | z4 A4 | G4 B4- | B4 A4 | B3 c d2 e2 | f4 c4 | d6 c2 | A4 B4 | c4 e4- | %339
w: * ca to||rum:~|Et~|ex spe|* cto~|re sur re xi|o nem~|mor tu|o *|rum,~ mor|
 e2 d2 d4- | d4 G4- | G4 c4- | c2 B2 B4- | B4 A4 | B8 | z8 | z8 | z4 e4 | d4 c2 d2 | e4 d4 | %350
w: * * tu|* rum,~|* mor|* tu o||rum~|||et~|vi tam~ ven|tu ri~|
 c6 c2 | B8 | z4 A4 | B4 G2 B2 | A4 F4 | z4 d4 | f4 c2 e2 | d4 B4 | d6 d2 | c4 d4- | d2 c2 B2 AG | %361
w: sae cu|li,~|et~|vi tam~ ven|tu ri,~|et~|vi tam~ ven|tu ri~|sa cu|li.~ A||
 F2 D2 d4- | d4 c4 | d8 | e8 | d8- | d8 | =B8- | B8 |] %369
w: ||men.~|A|||men.~||
V:2
 z8 | z8 |[K:Bb][M:2/2] G8 | G4 F4 | G4 E4 | D6 E2 | F8 | z4 C4 | E6 F2 | G2 A2 B4 | B4 A4 | %11
w: ||Pa|trem~ om|ni po|ten *|tem,~|fa|cto rem~|coe * *|li~ et~|
 D4 G4 | F4 B4 | B4 A4- | A4 G4 | F4 G4 | E8 | D8- | D8 | z4 G4- | G4 G4 | B6 B2 | F4 F4- | %23
w: ter *|rae,~ coe|li~ et~|* ter|||rae,~||vi|* si|bi li|um~ om|
 F2 E2 D4 | C8 | z8 | z4 D4- | D4 C4 | E4 D2 D2- | D2 CB, C4 | D4 d4- | d2 G2 B4- | B4 A4 | B6 B2 | %34
w: * ni *|um~||et~|* in|vi si bi|* li * *|um.~ Et~|* in~ u|* num~|Do mi|
 G8 | B4 A4 | G4 C4 | z2 B4 B2 | A4 G4- | G4 F4 | G4 A4 | B6 B2 | A8 | G8- | G4 G4 | F8- | F4 D4 | %47
w: num~|Je sum~|Chri stum,~|fi li|um~ De|* i~|u ni|ge ni|tum,~|u|* ni|ge|* ni|
 D8 | z4 D4- | D4 D4 | F8 | E4 D4- | D4 C4 | F4 G4 | A6 A2 | F4 B4- | B4 G4 | A8 | F8 | D4 B,4 | %60
w: tum:~|et~|* ex~|pa|tre~ na|* tum~|an te~|om ni|a~ sae|* cu|la,~|De|um~ de~|
 E8 | D8 | z8 | G8 | F4 B4 | A4 G4 | G8- | G8 | z4 G4 | E4 C4 | G6 B2 | A4 G4- | G2 ^F=E F4 | G8 | %74
w: De|o,~||De|um~ ve||num~||de~|De o~|ve *|ro,~ ve||ro,~|
 z8 | B6 A2 | B4 G4 | F4 B,4 | z8 | D8 | B,4 D4- | D4 E4 | F4 B,4 | E4 D4 | z4 G4- | G2 F2 G2 A2 | %86
w: |ge ni|tum~ non~|fa ctutm,~||con|sub stan|* ti|a lem~|pa tri,~|con|* sub stan ti|
 B4 F4 | G8 | F8- | F8 | z4 G4 | A4 B4- | B2 A2 F4 | G4 E4 | D8 | G4 A4 | c6 c2 | B4 A4- | A4 G4 | %99
w: a lem~|pa|tri,~||per~|quem~ om|* ni a~|fa cta~|sunt,~|per~ quem~|om ni|a~ fa|* cta~|
 A4 D4- | D4 E4 | F6 E2 | D4 C4- | C4 B,4 | A,8- | A,8 | z8 | z8 | z8 | z8 | z8 | z8 | z8 | z8 | %114
w: sunt,~ per~|* quem~|om ni|a~ fa|* cta~|sunt.~||||||||||
 z8 | z8 | z8 | z8 | z8 | z8 | z8 | z8 | z8 | z8 | z8 | z4 C4 | D4 C4 | D6 E2 | D8 | z8 | z4 E4 | %131
w: |||||||||||Et~|in car|na tus~|est~||de~|
 D6 E2 | F4 G4- | G2 F2 E4 | D8 | G,8 | z4 G4- | G4 F4 | G4 B4 | A6 A2 | G4 F4 | A4 G4 | B6 A2 | %143
w: spi ri|tu~ san|||cto~|ex~|* Ma|ri a~|vir gi|ne,~ et~|ho mo~|fa *|
 G4 A4 | G4 F4- | F2 G2 A4- | A4 G4- | G4 ^F4 | G4 G,4 | D6 C2 | A,4 C4 | B,4 B,4- | B,4 G,4 | %153
w: * ctus~|est,~ fa|||* ctus~|est,~ et~|ho mo~|fa ctus~|est,~ fa|* ctus~|
 A,8 | z4 F4- | F4 F4 | F4 F4 | F6 F2 | F4 D4 | =E8 | D4 D4 | D6 D2 | D4 F4 | =E8 | F8 | C6 E2 | %166
w: est.~|Cru|* ci|fi xus~|e ti|am~ pro~|no|bis~ sub~|Pon ti|o~ Pi|la|to~|pas sus~|
 D4 B,4 | D6 D2 | G,4 z2 G,2 | B,4 E4 | D8 | z4 D4 | =E4 ^F4 | G4 B4 | A6 A2 | G8 | F4 D4 | C4 D4 | %178
w: et~ se|pul tus~|est,~ se|pul tus~|est.~|Et~|re sur|re xit~|ter ti|a~|di *|* e,~|
 B6 B2 | A4 G4 | ^F8 | z8 | z8 | z4 D4 | F4 D2 F2 | E2 D2 E4 | D8- | D8 | E6 F2 | G4 A2 B2 | %190
w: ter ti|a~ di|e~|||se|cun dum~ scrip|tu * *|ras.~||Et~ a|scen dit~ in~|
 c4 d4 | e4 c4 | G4 A4 | F2 A2 G4 | C3 D E3 F | G2 A2 B2 A2 | G8 | F8 | z8 | z8 | G4 C4 | %201
w: coe *|lum,~ se|det~ ad~|dex te ram~|pa * * *|||tris,~|||se det~|
 D2 F2- FF F2 | G2 B2 A3 G | F2 GA B2 A2 | G4 F4 | D8 | D8 | z4 D4 | B6 B2 | A4 B4 | G4 F4 | %211
w: ad~ dex * te ram~|pa * * *||tris,~ *|pa|tris,~|et~|i te|rum~ ven|tu rus~|
 B4 z2 F2 | A6 A2 | G4 B4- | B2 A2 B4 | G8 | F8 | z4 B,4 | F6 F2 | E4 D4- | D2 C2 D4 | B,8 | %222
w: est~ cum~|glo ri|a~ ju|* di *|ca|re,~|cum~|glo ri|a~ ju|* di *|ca|
 A,4 D4 | G4 G4 | B6 B2 | F8 | z8 | G6 A2 | B8- | B4 B,4 | z4 G4- | G2 A2 B4- | B4 F4 | z4 c4 | %234
w: re~ vi|vos~ et~|mor tu|os,~||cu jus~|re|* gni,~|cu|* jus~ re|* gni~|non~|
 A4 B4 | G4 F4- | F2 G2 A4- | A4 G2 A2 | B4 G4 | F8 | D4 E4- | E4 D4 | z4 G4- | G4 G4 | A6 A2 | %245
w: e rit~|fi *|||nis,~ non~|e|rit~ fi|* nis.~|Et~|* in~|Spi ri|
 B4 B4- | B4 A4 | B8 | G6 G2 | A4 F4 | G4 A2 c2 | B4 G4 | G4 F2 E2 | D2 C2 B,4 | F8 | A6 G2 | %256
w: tum~ san||ctum~|Do mi|num~ et~|vi vi fi|can tem,~|vi vi fi|can * *|tem,~|qui~ ex~|
 A2 B2 c4 | F4 B4 | A4 G4- | G4 F4 | D8 | F4 G3 A | B2 G2 A2 G2 | F6 C2 | D3 E F4 | F8 | z4 D4- | %267
w: pa * *|tre~ fi|li o|* que~|pro|ce * *||dit,~ pro|ce * *|dit,~|qui~|
 D4 F4 | G8 | F8 | G4 B4- | B4 A4 | B4 B4- | B4 G4 | A4 F4 | G8 | F8 | z4 c4 | B4 G4 | G6 A2 | B8 | %281
w: * cum~|pa|tre~|et~ fi|* li|o~ si|* mul~|a do|ra|tur~|et~|con glo|ri fi|ca|
 A4 B4 | A6 F2 | G6 A2 | B6 c2 | d6 cB | A2 G2 A4 | =B8 | z4 B4- | B4 B4 | G4 B4 | F8 | B8 | %293
w: tur,~ et~|con glo|ri fi|ca *|||tur,~|qui~|* lo|cu tus~|est~|per~|
 F4 G4- | G4 D4 | F6 C2 | F8 | F8- | F8 | z8 | B8 | A4 B4 | z4 B4- | B4 A4 | B4 F4 | G6 B2 | %306
w: Pro phe|* tas,~|per~ Pro|phe|tas.~|||Et~|u nam~|san||ctam~ Ca|tho li|
 A4 A4 | G6 F2 | F8 | z4 G4 | F4 B4 | A6 A2 | G8 | B4 G4- | G4 ^F4 | G8- | G8 | z4 C4 | F6 F2 | %319
w: cam,~ Ca|tho li|cam~|et~|A po|sto li|cam~|Ec cle|* si|am.~||Con|fi te|
 D4 E4- | E4 D4- | D2 C2 C4- | C4 =B,4 | C8 | G8- | G4 D4- | D4 F4- | F2 G2 A4- | A2 G2 B4- | %329
w: or~ u|* num~|* bap tis||ma~|in~|* re|* mis|* si o|* nem~ pec|
 B2 A2 G4- | G4 ^F2 =E2 | ^F8 | z8 | z8 | z8 | F8 | D4 F4- | F4 B,4 | E3 F G2 A2 | B4 F4 | B6 A2 | %341
w: * ca to||rum:~||||Et~|ex spe|* cto~|re sur re xi|o nem~|mor tu|
 G8 | F8- | F8 | z4 E4 | D4 C2 D2 | E4 F4 | G6 A2 | B8 | z4 B,4 | F4 C2 E2 | D4 B,4 | C6 C2 | B,8 | %354
w: o|num,~||et~|vi tam~ ven|tu ri~|sae cu|li,~|et~|vi tam~ ven|tu ri~|sae cu|li,~|
 C4 c4 | F2 F2 B4- | B4 A4 | B4 G4 | F4 z4 | z4 F4 | B4 G2 B2 | A4 D4 | G6 G2 | ^F4 G4- | %364
w: et~ vi|tam~ ven tu|* ri~|sae cu|li,~|et~|vi tam~ ven|tu ri~|sae cu|li.~ A|
 G2 F2 E2 DC | B,2 G,2 G4- | G4 ^F4 | G8- | G8 |] %369
w: |||men.~||
V:3
 z8 | z8 |[K:Bb][M:2/2] z8 | z8 | z8 | z8 | z8 | z8 | z8 | z8 | z8 | z4 G4 | B6 c2 | d2 e2 f4 | %14
w: |||||||||||fa|cto rem~|coe * *|
 f4 e4 | d4 c2 B2 | c2 d2 c4 | B8 | z4 G4- | G4 G4 | B6 B2 | B4 G3 A | B2 c2 d4 | c4 f4- | f4 e4 | %25
w: li~ et~|ter * *||rae,~|vi|* si|bi li|um~ om ni||um~ et~|* in|
 d4 c4 | B6 B2 | A8 | c6 B2 | G4 G4 | B4 A4 | G4 d4- | d2 B2 f4- | f2 d2 f4- | f4 e4 | f8 | %36
w: vi si|bi li|um,~|et~ in|vi si|bi li|um.~ Et~|* in~ u|* num~ Do|* mi|num~|
 z4 g4- | g4 f4 | z4 e2 f2 | g2 a2 b4- | b4 f4 | z8 | f6 f2 | e4 d4- | d4 c4 | d6 c2 | A4 B4 | A8 | %48
w: Je|* sum~|Chri *||* stum,~||fi li|um~ De|* i~|u ni|ge ni|tum:~|
 z4 B4- | B4 B4 | c4 d4 | B8 | A8 | d4 G2 c2- | c2 c2 A4 | d6 c2 | d4 =e4 | f8 | z8 | z8 | z4 g4- | %61
w: et~|* ex~|pa tre~|na|tum~|an te~ om|* ni a~|sae *|* cu|la,~|||lu|
 g4 f4 | e4 d4- | d4 c4 | d8 | z4 c4 | G4 B4 | c2 d2 e4- | e4 d4 | c8 | B8 | z8 | z8 | e6 d2 | %74
w: * men~|de~ lu|* mi|ne,~|de~|De o~|ve * *|* ro,~|ve|ro,~|||ge ni|
 e4 f4 | g8 | G8 | d6 c2 | d4 e4 | f8- | f8 | B8 | d8 | g6 f2 | d8 | e8 | f8 | z4 B4 | c4 d4- | %89
w: tum~ non~|fa|ctum,~|con sub|stan ti|a||lem~|pa||||tri,~|per~|quem~ om|
 d2 c2 A4 | B4 G4 | ^F4 z4 | z8 | z8 | z4 d4 | e4 f4- | f2 e2 c4 | d6 c2 | B2 A2 B4 | c4 z4 | %100
w: * ni a~|fa cta~|sunt,~|||per~|quem~ om|* ni a~|fa *|* * cta~|sunt,~|
 f4 g4 | a6 g2 | f8 | d6 =e2 | ^f8- | f8 | z8 | f8 | f4 e4 | f4 g4- | g2 f2 d4 | z4 f4 | d4 B4 | %113
w: per~ quem~|om ni|a~|fa cta~|sunt.~|||Qui~|pro pter~|nos~ ho|* mi nes~|et~|pro pter~|
 d8 | B4 G4 | A8 | G8- | G8 | z4 B4 | G8 | F8 | z8 | c4 g4- | g2 f2 f4 | f2 =ed e4 | f8- | f8 | %127
w: no|stram~ sa|lu|tem~||de|scen|dit~||de coe|||lis:~||
 z8 | z4 B4 | f4 d4 | e6 g2 | f8 | z4 c4 | e6 f2 | g4 b4- | b2 a2 g4- | g2 f2 e4 | d8 | z4 d4- | %139
w: |Et~|in car|na tus~|est~|de~|spi ri|tu~ san|||cto~|ex~|
 d4 c4 | e4 d4 | c6 c2 | B8 | z4 c4 | e4 d4 | f6 e2 | d2 c2 B4 | d4 z2 d2 | e4 d4 | f6 e2 | %150
w: * Ma|ri a~|vir gi|ne,~|et~|ho mo~|fa *|* * ctus~|est,~ et~|ho mo~|fa *|
 d2 c2 e4- | e2 d2 d4- | d4 c4 | d8 | z4 d4- | d4 d4 | B4 A4 | B6 A2 | F4 B4 | A8 | D4 G4 | %161
w: ||* ctus~|est.~|Cru|* ci|fi xus~|e ti|am~ pro~|no|bis~ sub~|
 ^F6 G2 | D4 d4 | c8 | F8 | z8 | B6 A2 | G4 B4 | e4 d4- | d4 c4 | =B8 | z8 | z8 | z4 d4 | =e4 ^f4 | %175
w: Pon ti|o~ Pi|la|to~||pas sus~|et~ se|pul *|* tus~|est.~|||Et~|re sur|
 g4 b4 | a6 g2 | a4 f4- | f2 f2 d4 | f4 d4 | d8- | d8 | z4 A4 | d4 B2 G2 | d6 A2 | B4 G3 A | %186
w: re xit~|ter ti|a,~ ter|* ti a~|di *|e~||se|cum dum~ scrip|tu *||
 B2 c2 A4 | =B4 B4 | c8 | G8 | z8 | c6 d2 | e4 f2 g2 | a4 =b4 | c'4 g4 | c4 d4 | e6 e2 | %197
w: |ras,~ scrip|tu|ras.~||Et~ a|scen dit~ in~|coe *|lum,~ se|det~ ad~|dex te|
 d3 c A2 B2 | c2 e2 d4 | G8 | z8 | z4 d4 | G4 A4 | B3 A G2 F2 | E4 F4 | B8 | z4 d4 | f6 f2 | %208
w: ram~ pa * *||tris,~||se|det~ ad~|dex te ram~ pa||tris,~|et~|i te|
 e4 d4 | c4 B4 | c4 d4 | B8 | z8 | z4 B4 | f6 f2 | e4 d4- | d2 c2 d4 | B8 | A8 | z4 B4 | f4 f4 | %221
w: num~ ven|tu rus~||est~||cum~|glo ri|a~ ju|* di *|ca|re~|vi|vos~ et~|
 g6 g2 | f4 B4 | c6 c2 | B8 | z4 B4- | B2 c2 d4- | d4 G4 | z4 G4 | g6 f2 | e4 c4 | z8 | z4 d4- | %233
w: mor tu|os,~ et~|mor tu|os,~|cu|* jus~ re|* gni~|non~|e rit~|fi nis,~||cu|
 d2 e2 f4- | f4 B4- | B4 d4 | B4 A4 | c8 | G4 e4 | d8 | B4 g4- | g4 f4 | z4 e4- | e4 d4 | f6 f2 | %245
w: * jus~ re|* gni~|* non~|e rit~|fi|nis,~ non~|e|rit~ fi|* nis.~|Et~|* in~|Spi ri|
 f8 | g4 f2 e2 | f4 f4- | f4 =e4 | f8 | z4 f4 | B4 c2 e2 | d4 c4 | z4 d4- | d2 c2 d2 e2 | f4 c4 | %256
w: tum~|san * *|ctum~ Do|* mi|num~|et~|vi vi fi|can tem,~|qui~|* ex~ pa *|* tre~|
 f4 e4 | d8- | d4 B4 | z4 B4 | B3 c d2 B2 | c4 e4 | d4 c4- | c2 B2 A4 | B3 c d2 B2 | c8 | z4 B4- | %267
w: fi li|o~|* que~|pro|ce * * *|dit,~ fi|li o~|* que~ pro|ce * * *|dit,~|qui~|
 B4 d4 | e8 | d8 | z4 B4 | e4 f4 | B2 B4 c2 | d4 e4 | f6 c2 | e8 | d8 | z8 | z4 z2 g2 | e4 c4 | %280
w: * cum~|pa|tre~|et~|fi li|o~ si mul~|a do|ra *||tur~||et~|con glo|
 d3 e f4- | f4 B4 | z4 f4 | e4 c4 | B3 c d4- | d2 G2 g4- | g4 ^f4 | g8 | z4 f4- | f4 d4 | e4 d4 | %291
w: ri fi ca|* tur,~|et~|con glo|ri fi ca|||tur,~|qui~|* lo|cu tus~|
 d8 | z8 | z4 e4- | e4 B4 | d6 e2 | d4 c4 | d8- | d8 | z8 | f8 | f4 f4 | z4 d4- | d2 e2 f4 | %304
w: est~||per~|* Pro|phe *||tas.~|||Et~|u nam~|san||
 d4 d4 | c6 B2 | f4 c4 | e6 d2 | c4 f4 | d4 e4 | d2 e2 f4- | f2 f2 c4- | c4 d4 | g6 a2 | b4 a4 | %315
w: ctam~ Ca|tho li|cam,~ Ca|tho li|cam~ et~|A po|sto * *|* li cam~|* Ec|cle *|* si|
 g8 | z4 =e4 | f6 f2 | c4 d4- | d4 G4 | B8 | e8 | d8 | c4 c4 | e6 f2 | g8 | f4 d4- | d4 c4 | %328
w: am.~|Con|fi te|or~ u|* num~|bap|tis|ma~|in~ re|mis si|o|nem~ pec|* ca|
 e4 d2 c2 | B6 c2 | d8 | d4 d4 | e8 | c8 | B6 c2 | d2 e2 f4- | f4 B4 | d3 e f2 d2 | g8- | g4 d4 | %340
w: to * *||rum:~|Et~ ex|spe|cto~|re sur|re xi o|* nem,~|re sur re xi|o|* nem~|
 z4 B4- | B2 c2 e4- | e4 d4 | c8 | B8 | z8 | z8 | z4 e4 | f4 e2 f2 | g2 a2 b4- | b4 a4 | b8 | z8 | %353
w: mor|* tu o|||rum,~|||et~|vi tam~ ven|tu ri~ sae|* cu|li,~||
 z4 d4 | f4 c2 e2 | d4 B4 | c6 c2 | B8 | z4 B4 | f4 d2 f2 | e4 d4- | d4 B4- | B4 G4 | A4 B4- | %364
w: et~|vi tam~ ven|tu ri~|sae cu|li,~|et~|vi tam~ ven|tu ri~|* sae|* cu|li.~ A|
 B4 c4 | d6 cB | A2 D2 d4 | d8- | d8 |] %369
w: |||men.~||
V:4
 F,2 D,2 _E,2 C,2 | D,2 F,2 G,4 |[K:Bb][M:2/2] z8 | z8 | z8 | z8 | z8 | z8 | z8 | z8 | z8 | z8 | %12
 z8 | z8 | z8 | z8 | z8 | z4 G,4- | G,4 G,4 | B,6 B,2 | E,8 | G,3 A, B,4- | B,4 B,4 | F,8 | z8 | %25
 z8 | z8 | F,6 E,2 | C,4 D,4 | E,6 E,2 | D,8 | z4 G,4- | G,4 F,4 | B,8- | B,4 C4 | D6 D2 | %36
 B,4 E4- | E4 D4 | C8 | B,4 B,4- | B,2 B,2 A,4 | G,8 | F,8 | G,6 F,2 | E,4 E,4 | D,8- | D,8- | %47
 D,8 | z4 G,4- | G,4 G,4 | A,4 B,4 | G,8 | F,8 | D,4 =E,4 | F,6 F,2 | D,4 G,4- | G,4 G,4 | F,8 | %58
 z8 | z8 | z8 | B,8 | G,6 F,2 | G,4 E,4 | B,8 | z8 | z4 G,4 | E,4 C,4 | E,2 F,2 G,4 | C,4 z2 C2 | %70
 G,4 B,4 | C2 D2 E4 | D8 | C6 B,2 | C4 A,4 | G,8- | G,4 E,4 | D,8 | z8 | z8 | z8 | G,8 | F,4 G,4- | %83
 G,2 A,2 B,4- | B,4 G,4 | C8 | B,8 | z4 G,4 | A,4 B,4- | B,2 A,2 F,4 | G,4 E,4 | D,8 | z8 | %93
 G,4 A,4 | B,6 A,2 | G,4 F,4- | F,4 E,4 | D,8 | G,8 | F,4 B,4- | B,2 A,2 G,4 | F,8- | F,8 | G,8 | %104
 D,8- | D,8 | B,8 | B,4 A,4 | B,4 C4- | C2 B,2 G,4 | z4 B,4 | A,4 F,4 | G,8 | F,4 D,4 | E,8 | D,8 | %116
 z4 E,4 | C,8 | B,,8 | z4 B,4 | F6 E2 | C2 D2 E4- | E2 DC B,2 C2 | D8 | C8 | z4 F,4 | B,4 A,4 | %127
 B,6 C2 | B,8 | z8 | z4 E,4 | B,6 C2 | D4 E4- | E2 D2 C4 | G,8 | z4 C,4 | E,6 F,2 | G,4 B,4- | %138
 B,2 A,2 G,4 | F,8 | z8 | z8 | z4 G,4- | G,4 F,4 | G,4 B,4 | A,6 G,2 | F,4 G,4 | D,8 | z8 | %149
 z4 D,4 | F,4 E,4 | G,6 F,2 | E,4 E,4 | D,8- | D,8 | z8 | z8 | z8 | z8 | z8 | z8 | z8 | z8 | z8 | %164
 z8 | z8 | z8 | z8 | z8 | z8 | z4 G,4 | A,4 =B,4 | C4 D4 | G,6 G,2 | C4 D4 | B,4 G,4 | z8 | z8 | %178
 B,6 B,2 | F,4 G,4 | D,4 D,4 | B,4 G,2 B,2 | A,4 ^F,4 | G,8 | z4 D,4 | G,4 E,2 C,2 | D,8 | G,8 | %188
 z8 | z8 | z8 | z8 | z8 | z8 | z8 | z8 | G,6 A,2 | B,4 C2 D2 | E4 F4 | G4 D4 | G,4 A,4 | B,6 A,2 | %202
 B,4 C2 E2 | D3 C B,2 CD | E2 D2 C4 | z4 G,4 | B,6 B,2 | A,4 B,4 | G,4 B,4 | F,4 z4 | z8 | z4 D4 | %212
 F6 F2 | E4 D4- | D4 B,4 | C4 B,4- | B,2 A,2 B,4 | G,8 | F,4 D,4 | G,6 B,2 | F,4 D,4 | E,4 G,4 | %222
 D,8 | z8 | z4 B,4- | B,2 C2 D4- | D4 G,4- | G,4 B,4- | B,4 E4- | E4 D4 | C8 | B,4 G,4- | %232
 G,2 A,2 B,4- | B,4 F,4 | z8 | z4 D,4- | D,2 E,2 F,4- | F,4 C,4 | z4 G,4 | B,4 F,4 | G,8- | %241
 G,4 B,4 | z4 E,4- | E,4 G,4 | F,6 F,2 | B,4 D4 | C8 | B,8 | C6 C2 | F,8 | z8 | z4 C4 | %252
 G,4 A,2 C2 | B,8 | F,8- | F,8 | z8 | z4 G,4- | G,2 F,2 G,2 A,2 | B,4 B,,4 | z4 B,4 | A,4 G,4- | %262
 G,4 C,4 | D,4 F,3 E, | D,3 C, B,,4 | F,8 | z4 G,4- | G,4 F,4 | E,3 F, G,2 A,2 | B,8 | E,8 | z8 | %272
 z4 G,4 | B,4 C4 | F,8 | z8 | z4 B,4- | B,4 C4 | D4 E4 | C8 | B,8 | z8 | z8 | z4 E4 | D4 G,4 | %285
 B,6 C2 | D8 | G,8 | z4 B,4- | B,4 B,4 | C4 B,4 | B,8 | z4 B,4- | B,4 E,4 | G,8 | F,8- | F,8 | %297
 B,8- | B,8 | z8 | B,8 | D4 B,4 | z4 B,4- | B,2 C2 D4 | B,8 | z8 | z4 F,4 | G,6 B,2 | F,4 F,4 | %309
 G,4 E,4 | B,6 B,2 | F,8 | C4 B,4- | B,4 E4 | D8 | z4 G,4 | C6 C2 | F,4 F,4- | F,2 F,2 F,4 | G,8- | %320
 G,8 | C,8 | G,4 G,4 | A,6 B,2 | C8 | G,8 | B,8- | B,4 F,4 | G,8- | G,8 | D,8- | D,8 | z8 | F,8 | %334
 G,4 B,4- | B,4 F,4 | B,3 C D2 E2 | F4 D4 | C8 | G,4 B,4- | B,2 A,2 G,2 F,2 | E,8 | F,8- | F,8 | %344
 z4 G,4 | B,4 A,2 B,2 | C4 D4 | E4 C4 | B,8 | z8 | z4 F,4 | B,4 G,2 B,2 | A,4 F,4 | G,6 G,2 | F,8 | %355
 B,4 G,4 | F,8 | z4 E,4 | B,4 G,2 B,2 | A,4 B,4 | G,6 G,2 | D,8 | E,8 | D,4 G,4 | E,4 C,4 | G,8 | %366
 D,8 | G,8- | G,8 |] %369

